assets/ai/ai-crossref-square.svg

<svg xmlns="http://www.w3.org/2000/svg" width="100%" height="100%" viewBox="-75.52 -43.52 599.04 599.04"><path d="M 48 32 C 21.5 32 0 53.5 0 80 L 0 432 C 0 458.5 21.5 480 48 480 L 400 480 C 426.5 480 448 458.5 448 432 L 448 80 C 448 53.5 426.5 32 400 32 L 48 32 z M 333.91406 96 L 333.91406 192.46875 L 254.58789 218.68945 L 333.91406 244.9043 L 333.91406 341.38086 L 114.08594 416 L 114.08594 319.53125 L 193.41211 293.31055 L 114.08594 267.08789 L 114.08594 170.61914 L 333.91406 96 z"/></svg>

<svg xmlns="http://www.w3.org/2000/svg" width="100%" height="100%" viewBox="-75.52 -43.52 599.04 599.04"><path d="M48 32C21.5 32 0 53.5 0 80v352c0 26.5 21.5 48 48 48h352c26.5 0 48-21.5 48-48V80c0-26.5-21.5-48-48-48H48zm285.914 64v96.469l-79.326 26.22 79.326 26.215v96.477L114.086 416v-96.469l79.326-26.22-79.326-26.223v-96.469L333.914 96z"/></svg>
